X: 36443
T: Seaweed On The Yellow Cliff
R: strathspey
M: 4/4
K: Adorian
(gf>a)|:e<AB>A G>AB>d|e<AB>G A(>gf>a)|e<AB>A G>AB>d|1 (3efg (d>B) A>gf>a:|
[2 (3efg (d>B) A>B^c>d|:e<(a{b}a>^g) a>b=g>e|d<BG>A B<GB>d|
(3ef(g f)>(a g>f)g>d|1 (3efg (d>B) A>B^c>d:|2 (3efg (d>B) A>gf>a||

